!!!COM: Anon.
!!!OTL: Kappore
!!!OTC: Japanese Popular Music: A Collection of The Popular Music of Japan Rendered in to the Staff notation.
!!!CNT: Nippon, Japanese
!!!TXO: Nippon, Japan
!!!OCY: Nippon, Japan
!!!ODT: <1892///
!!!PSR: S. Miki & Co.
!!!PSP: Osaka, Nippon
!!!PDT: 1892///
!!!PPE: Y Nagai & K. Kobatake
!!!PED: Revised Second Edition
!!!PPG: page 24-25
!! Allegro
**kern	**silbe
*ICstr	*Lnippon
*ICvox	*
*Ikoto	*
*Ivox	*
*clefG2	*
*k[f#]	*
*M2/4	*
=1-	=1-
8a	.
8a	.
8ee	.
8dd	.
=2	=2
4ee	.
8.ee	.
16ee	.
=3	=3
8ee	.
16bb	.
16bb	.
8bb	.
8ff#	.
=4	=4
4aa	.
4r	.
!! Repeat from the beginning.
=5	=5
8a	.
8a	.
8ee	.
8dd	.
=6	=6
4ee	.
8.ee	.
16ee	.
=7	=7
8ee	.
16bb	.
16bb	.
8bb	.
8ff#	.
=8	=8
4aa	.
4r	.
=9	=9
8r	.
8g	.
[4a	.
=10	=10
8a]	.
8b	.
4a	.
=11	=11
4e	.
4e	.
=12	=12
8r	.
8g	.
4a	.
=13	=13
8g	.
8a	.
[4b	.
=14	=14
4b]	.
4a	.
=15	=15
4e	.
4e	.
=16	=16
8r	.
8g	.
4a	.
=17	=17
8g	.
8a	.
4b	.
=18	=18
4dd	.
8.ee	.
16dd	.
=19	=19
8b	.
8dd	.
4ee	.
=20	=20
8a	.
8ee	.
4ee	.
=21	=21
8a	.
8ee	.
4ee	.
=22	=22
4ff#	.
8ee	.
8dd	.
=23	=23
8b	.
8a	.
4b	.
=24	=24
8b	.
8dd	.
4ee	.
=25	=25
4ee	.
4a	.
=26	=26
4r	.
8b	.
8dd	.
=27	=27
8b	.
8dd	.
4ee	.
=28	=28
8r	.
8ee	.
[4ff#	.
=29	=29
4ff#]	.
[4ee	.
=30	=30
4ee]	.
[4dd	.
=31	=31
4dd]	.
8b	.
8dd	.
=32	=32
8b	.
8dd	.
4ee	.
=33	=33
4r	.
8ee	.
8dd	.
=34	=34
8b	.
8dd	.
[4a	.
=35	=35
8a]	.
8f#	.
4e	.
=36	=36
8a	.
8e	.
4e	.
=37	=37
4e	.
4e	.
=38	=38
8r	.
8g	.
4a	.
=39	=39
8g	.
8a	.
4b	.
=40	=40
4dd	.
4b	.
=41	=41
8a	.
8g	.
4a	.
=42	=42
8e	.
8a	.
4a	.
=43	=43
8r	.
8a	.
[4a	.
=44	=44
8a]	.
8e	.
4d	.
=45	=45
4e	.
8r	.
8g	.
=46	=46
4a	.
8g	.
8a	.
=47	=47
4b	.
4dd	.
=48	=48
8ee	.
8dd	.
8b	.
8dd	.
=49	=49
4ee	.
8a	.
8ee	.
=50	=50
4ee	.
8a	.
8ee	.
=51	=51
4ee	.
4ff#	.
=52	=52
8ee	.
8dd	.
8b	.
8a	.
=53	=53
4b	.
8b	.
8dd	.
=54	=54
4ee	.
4ee	.
=55	=55
4a	.
4r	.
=56	=56
8b	.
8dd	.
8b	.
8dd	.
=57	=57
4ee	.
8r	.
8ee	.
=58	=58
2ff#	.
=59	=59
2ee	.
=60	=60
2dd	.
=61	=61
8b	.
8dd	.
8b	.
8dd	.
=62	=62
4ee	.
4r	.
=63	=63
8ee	.
8dd	.
8b	.
8dd	.
=64	=64
4a.	.
8f#	.
=65	=65
4e	.
8a	.
8e	.
=66	=66
4e	.
4e	.
=67	=67
4e	.
8r	.
8g	.
=68	=68
4a	.
8g	.
8a	.
=69	=69
4b	.
4dd	.
=70	=70
4b	.
8a	.
8g	.
=71	=71
4a	.
8e	.
8a	.
=72	=72
4a	.
4r	.
==	==
*-	*-
!!!ENC: David Huron
!!!RDT: 2000/1/30
!!!EEV: Release 1.0
!!!ELF: 8/28
!!!YER: 2000/2/1
!!!YEM: Copyright David Huron, 2000
!!!YEN: United States of America
